X:630
T: Ladies Step Up to Tea!
T: Seo libh, a Mhn\'a, chun Tae!
S: B.Breathnach:"Ceol Rince na hEireann" IV/34
Z: B.Black
L: 1/8
M: 9/8
R: slipjig
K: Ador
A2E EDE c2A|A2B c2d ecA|A2E EDE c2A|B2G G2B dBG :|
A2e e2d e2c|A2B c2d ecA|A2e e2d efg|B2G G2B dBG|
A2e e2d e2c|A2B c2d efg|agf gfe dcB|def gfe dcB ||
